X:1
T:Melody
T:Melody
T:Album for the Young
T:R. Schumann, Op. 68, No. 1
C:R. Schumann, Op. 68, No. 1
%%score { ( 1 3 ) | 2 }
L:1/8
M:4/4
K:C
V:1 treble nm="Piano" snm="Pno."
V:3 treble 
V:2 treble 
V:1
!p! (!5!e2 d2 c2 B2 | !1!AcBd c2 G2) | (!5!g2 f2 e2 !2!c2 | !1!B2 !2!!3![^FA]2 !1!G2) z2 :| %4
 (!3!d2 c2 B2) z2 | (!3!f2 e2 d2) z2 |!>(! (!5!a2 g2 f2 e2 | !1!d!>)!!4!feg !4!f3 !3!d) | %8
 (!4!!2![ce]2 !3!d2 !1!c2 !2!B2 | AcBd c2 G2) | (!5!a2 !4!g2 !1!!35![Bf]2 !2!!4![ce]2 | %11
 !3!dfBd c2) z2 | (d2 c2 B2) z2 | (f2 e2 d2) z2 | (a2 g2 f2 e2 | dfeg f3 d) | ([ce]2 d2 c2 B2 | %17
 AcBd c2 G2) | (a2 g2 [Bf]2 [ce]2 | dfBd c2) z2 |] %20
V:2
 (!5!CGFG EGCE | !2!FDGF EFED) | (!3!EGDG CG!3!EG | !4!DG!4!C!1!D !3!B,!1!D G,2) :| %4
 (!2!=FGEG DG^FG) | (!3!DGCG B,G^FG) | (!2!=FG!2!EG !3!DGCG | B,G!4!C!3!^C !2!D2 G2) | (CGFG EGCE | %9
 FDGF EFED) | (!3!Fc!4!Ec !5!DG!5!C!2!G | !3!FAGF E!1!G!5!C!3!E) | (FGEG DG^FG) | (DGCG B,G^FG) | %14
 (=FGEG DGCG | B,GC^C D2 G2) | (CGFG EGCE | FDGF EFED) | FcEc DGCG | FAGF EG C2 |] %20
V:3
 x8 | x8 | x8 | x8 :| x8 | x8 | x8 | x4 A=cBd | x8 | x8 | x8 | x8 | x8 | x8 | x8 | x4 A=cBd | x8 | %17
 x8 | x8 | x8 |] %20

